V6_wwwroot/ptn/core/icons/fa6/svgs/solid/money-check.svg

<svg xmlns="http://www.w3.org/2000/svg" viewBox="0 0 576 512"><!--! Font Awesome Free 6.7.2 by @fontawesome - https://fontawesome.com License - https://fontawesome.com/license/free (Icons: CC BY 4.0, Fonts: SIL OFL 1.1, Code: MIT License) Copyright 2024 Fonticons, Inc. --><path d="M64 64C28.7 64 0 92.7 0 128L0 384c0 35.3 28.7 64 64 64l448 0c35.3 0 64-28.7 64-64l0-256c0-35.3-28.7-64-64-64L64 64zm48 160l160 0c8.8 0 16 7.2 16 16s-7.2 16-16 16l-160 0c-8.8 0-16-7.2-16-16s7.2-16 16-16zM96 336c0-8.8 7.2-16 16-16l352 0c8.8 0 16 7.2 16 16s-7.2 16-16 16l-352 0c-8.8 0-16-7.2-16-16zM376 160l80 0c13.3 0 24 10.7 24 24l0 48c0 13.3-10.7 24-24 24l-80 0c-13.3 0-24-10.7-24-24l0-48c0-13.3 10.7-24 24-24z"/></svg>

<svg xmlns="http://www.w3.org/2000/svg" viewBox="0 0 576 512"><!--! Font Awesome Free 6.4.2 by @fontawesome - https://fontawesome.com License - https://fontawesome.com/license/free (Icons: CC BY 4.0, Fonts: SIL OFL 1.1, Code: MIT License) Copyright 2023 Fonticons, Inc. --><path d="M64 64C28.7 64 0 92.7 0 128V384c0 35.3 28.7 64 64 64H512c35.3 0 64-28.7 64-64V128c0-35.3-28.7-64-64-64H64zm48 160H272c8.8 0 16 7.2 16 16s-7.2 16-16 16H112c-8.8 0-16-7.2-16-16s7.2-16 16-16zM96 336c0-8.8 7.2-16 16-16H464c8.8 0 16 7.2 16 16s-7.2 16-16 16H112c-8.8 0-16-7.2-16-16zM376 160h80c13.3 0 24 10.7 24 24v48c0 13.3-10.7 24-24 24H376c-13.3 0-24-10.7-24-24V184c0-13.3 10.7-24 24-24z"/></svg>
